X: 36375
T: Sean Nugent's
R: reel
M: 4/4
K: Dmajor
|:D2FA defa|afec dBAF|D2FA dAFA|GEED EGFE|
D2FA defa|afec dBAa|bafa afec|1 dBAF GFEF:|2 dBAF GFEA||
|:d2ad bdad|fgab afef|d2ad bdad|bafe dABc|
d2ad bdad|fgab afea|bafa afec|1 dBAF GFEA:|2 dBAF GFEF||

